X:1
T:Dames plorez
T:Dames plorez
T:Jacques Arcadelt
T:Source : Dixiesme Livre de Chansons à 4 parties---Paris---N.du Chemin---1552 Editor : André Vierendeels (26/12/14).
C:Jacques Arcadelt
%%score [ 1 [ 2 3 ] 4 ]
L:1/8
Q:1/4=95
M:2/2
K:F
V:1 treble nm="Superius" snm="S"
V:2 treble-8 nm="Tenor 1" snm="T 1"
V:3 treble-8 nm="Tenor 2" snm="T 2"
V:4 bass nm="Bassus" snm="B"
V:1
 A4 B4 | B2 B4 A2 | G4 A4 | G2 F2 G2 F2 | E4 F4 | G4 G2 G2- | G2 F2 E4 | F4 D2 D2 | C2 C2 C2 F2 |: %9
w: Da- mes|plo- rez vous|point pour|le de- par- te-|ment de|ceulx qu'a- mour|_ a ioinct|in- se- pa-|ra- ble- ment. Nul-|
 A2 A2 A2 G2 | F4 E2 F2 | F2 F2 F2 E2 | D4 C4- | C4 z4 | z4 z2 C2 | D2 E2 F2 F2 | E2 D2 z2 F2 | %17
w: le son mal ne|ce- le soubz|pen- sé- e cou-|ver- te:|_|mais|sous- pi- r'et re-|ve- le en|
 G2 A2 G4 | c3 B G2 A2- | AG EF G2 F2- |1 F2 E2 F2 F2 :|2 F2 E2 F4- || F8 |] %23
w: re- gret- tant|sa _ _ per-||* * te. Nul-|(per)- * te.|_|
V:2
 f4 f4 | f2 f4 f2 | d4 f4 | e2 d2 d2 d2 | c4 c4 | _e4 e2 e2- | e2 d2 c4 | c4 B2 B2 | G2 G2 A2 c2 |: %9
w: Da- mes|plo- rez vous|point pour|le de- par- te-|ment de|ceulx qu'a- mour|_ a ioinct|in- se- pa-|ra- ble- ment. Nul-|
 f2 f2 f2 d2 | d2 c2 c4 | d2 c2 c2 c2 | A4 A2 A2 | A2 G2 G2 F2 | B4 A4 | z2 B2 c2 d2 | c2 B2 c3 d | %17
w: le son mal ne|ce- le soubz|pen- sé- e cou-|ver- te: mais|sous- pi- r'et re-|ve- le|en re- gret-|tant sa per- *|
 e2 f4 e2 | f4 z2 f2- | fe c2 d2 B2 |1 c4 A2 c2 :|2 c4 A4- || A8 |] %23
w: |te, sa-|* * * per- *|* te. Nul|(per)- te.|_|
V:3
 c4 d4 | d2 d4 c2 | =B4 c4 |"^b" c2 A2 B2 B2 | G4 A4 | B4 B2 B2- | B2 A2 G4 | A4 G2 F2 | %8
w: Da- mes|plo- rez vous|point pour|le de- par- te-|ment de|ceulx qu'a- mour|_ a ioinct|in- se- pa-|
 F2 E2 F2 A2 |: c2 c2 c2 B2 | A4 G2 A2 | B2 A2 A2 G2 | F4 E4- | E4 z2 C2 | D2 E2 F2 A2 | G4 F4 | %16
w: ra- ble- ment. Nul-|le son mal ne|ce- le soubz|pen- sé- e cou-|ver- te:|_ mais|sous- pi- r'et re-|ve- le|
 z2 F2 G2 A2 | G2 c3 B G2 | A3 G/F/ EC c2- | cB GA BA GF |1 G4 F2 A2 :|2 G4 F4- || F8 |] %23
w: en re- gret-|tant sa _ _|per- * * * * *||* te. Nul-|(per)- te.|_|
V:4
 F,4 B,,4 | B,,2 B,,4 F,2 |"^-natural" G,4 F,4 | C,2 D,2 B,,2 B,,2 | C,4 F,4 | _E,4 E,2 E,2- | %6
w: Da- mes|plo- rez vous|point pour|le de- per- te-|ment de|ceulx qu'a- mour|
 E,2 F,2 C,4 | F,4 B,,2 B,,2 | C,2 C,2 F,,2 F,2 |: F,2 F,2 F,2 G,2 | D,E, F,2 C,2 F,2 | %11
w: _ a ioinct|in- se- pa-|ra- ble- ment. Nul-|le son mal ne|ce- * * le soubz|
 B,,2 F,2 F,2 C,2 | D,4 A,,2 A,,2 | C,2 C,2 B,,2 A,,2 | G,,4 F,,4 | z4 z2 B,,2 | C,2 D,2 C,2 F,,2 | %17
w: pen- sé- e cou-|ver- te: mais|sous- pi- r'et re-|ve- le|en|re- gret- tant sa|
 C,8 | F,,G,, A,,B,, C,2 F,,G,, | A,,B,, C,2 B,,2 D,2 |1 C,4 F,,2 F,2 :|2 C,4 F,,4- || F,,8 |] %23
w: per-|||* te. Nul-|(per)- te.|_|

